X:32
T:Polska från Vetlanda
R:Slängpolska
O:Småland
B:Wallmans samling nr 17, Sumlen 1976
M:3/4
L:1/16
K:Dm
|: A3^c d2c2 d2e2 | gfef d2d2 =c4 | cfef fedc dcAc | cABG G2A2 A4 :|
|: f2fe fefg a2a2 | gagf efef g2g2 | f2fe fefg a2a2 |
gagf efef g4 | f2fe d2df e2e^c | A2A^c c2d2 d4 :|

